X: 1
T: Catterthun, The
M: 4/4
L: 1/8
R: reel
K: Gmaj
D2|G2BG DGBG|EcAG FADF|G2BG DGBG|EcAF G2:|
(3def|g2bg dgBd|ceag fa (3def|g2bg dgBd|ceaf g2 (3def|
g2bg dgBd|ceag fa (3def|gdBg ecAG|FADF G2||
